dist/icons/house.svg

<?xml version="1.0" encoding="utf-8"?>
<!-- Generated by IcoMoon.io -->
<!DOCTYPE svg PUBLIC "-//W3C//DTD SVG 1.1//EN" "http://www.w3.org/Graphics/SVG/1.1/DTD/svg11.dtd">
<svg version="1.1" xmlns="http://www.w3.org/2000/svg" xmlns:xlink="http://www.w3.org/1999/xlink" width="36" height="32" viewBox="0 0 36 32">
<path d="M30.27 18.081v10.403q0 0.564-0.412 0.975t-0.975 0.412h-8.322v-8.322h-5.548v8.322h-8.322q-0.564 0-0.975-0.412t-0.412-0.975v-10.403q0-0.022 0.011-0.065t0.011-0.065l12.461-10.273 12.461 10.273q0.022 0.043 0.022 0.13zM35.102 16.585l-1.344 1.604q-0.173 0.195-0.455 0.238h-0.065q-0.282 0-0.455-0.152l-14.997-12.505-14.997 12.505q-0.26 0.173-0.52 0.152-0.282-0.043-0.455-0.238l-1.344-1.604q-0.173-0.217-0.152-0.509t0.238-0.466l15.582-12.982q0.694-0.564 1.647-0.564t1.647 0.564l5.288 4.421v-4.226q0-0.303 0.195-0.498t0.498-0.195h4.161q0.303 0 0.498 0.195t0.195 0.498v8.842l4.746 3.944q0.217 0.173 0.238 0.466t-0.152 0.509z"></path>
</svg>

<svg xmlns="http://www.w3.org/2000/svg" width="36" height="32" viewBox="0 0 36 32"><path d="M30.27 18.08v10.404q0 .564-.412.975t-.975.41H20.56v-8.32h-5.547v8.32H6.69q-.563 0-.974-.41t-.412-.976V18.08q0-.02.01-.064t.012-.065L17.786 7.68 30.25 17.95q.022.044.022.13zm4.832-1.495l-1.344 1.604q-.173.194-.455.237h-.065q-.282 0-.455-.152L17.786 5.77 2.79 18.275q-.26.173-.52.152-.283-.043-.456-.238L.47 16.584q-.173-.217-.152-.51t.238-.465L16.138 2.628q.694-.564 1.647-.564t1.647.564l5.288 4.42V2.824q0-.303.195-.498t.498-.195h4.16q.304 0 .5.195t.194.498v8.842l4.746 3.944q.217.172.238.465t-.15.51z"/></svg>
